X:1
T:Title
%%score { ( 1 4 5 ) | ( 2 3 ) }
L:1/8
M:3/4
K:Bb
V:1 treble nm="Grand Piano"
V:4 treble 
V:5 treble 
V:2 bass 
V:3 bass 
V:1
 z2 z2[Q:1/4=116] F2 | F2 F2 F2 | F2 F2 F2 | GA B2 c2 | d4 z2 | d2 d2 c2 | c4 z2 | G2 c2 d2 | %8
 c4 z2 | F2 F2 F2 | F2 F2 F2 | GA B2 c2 | d4 z2 | d2 c2 G2 | B4 z2 | F2 B2 A2 |[M:2/4] [B,DFB]4 | %17
[M:1/4] [DF]2 |[M:3/4] [DF]2 [DF]3 [DF] | [EF]2 [EF]3 [EF] | GA B2 c2 | d4 [Fd]2 | %22
 [^Fd]2 [Fd]2 [Ac]2 | [Ac]3 [GB] [GB]2 | [=EG]2 [Ec]2 [Ed]2 | [Fc]4 [EF]2 | [Fd]2 [Fd]2 [Ec]2 | %27
 [Ec]2 [DB]2 [B,FA]2 | [B,EG]3 [B,FA] [B,EB]2 | [DF]4 [B,DF]2 | %30
 [B,EG]2 [Ge]2 [Gc]2[Q:1/4=114][Q:1/4=113][Q:1/4=111][Q:1/4=109][Q:1/4=107][Q:1/4=106][Q:1/4=104][Q:1/4=102][Q:1/4=101][Q:1/4=99][Q:1/4=97][Q:1/4=96][Q:1/4=94][Q:1/4=92][Q:1/4=90][Q:1/4=89] | %31
 [Fd]3 [Fc] [FB]2 | [=Ec]2 [EG]2 A2 |[M:2/4] [DB]4 |] %34
V:2
 z6 | z2 [B,D]2 [B,D]2 | z2 [A,E]2 [A,E]2 | z2[K:treble] [A,EF]2 [A,EF]2 | z2 [B,D]2 [B,DF]2 | %5
 z2[K:treble] [CD^F]2 [CDF]2 | z2 [B,D]2 [B,DG]2 | z2 [B,C=E]2 [B,CE]2 | z2 [A,C]2 [A,CE]2 | %9
 z2 [B,D]2 [B,D]2 | z2 [A,E]2 [A,E]2 | z2[K:treble] [A,EF]2 [A,E]2 | z2 [A,D]2 [A,D^F]2 | %13
 z2[K:treble] [CEG]2 [CE]2 | z2 [CE]2 .[CEG]2 | z2[K:treble] [B,DF]2 [A,E]2 | %16
[M:2/4][K:bass] [B,,,B,,]4 |[M:1/4] [B,,B,]2 |[M:3/4] [B,,B,]2 [B,,B,]3 [B,,B,] | %19
 [C,A,]2 [C,A,]3 [C,A,] | [F,A,E]2 [F,A,E]2 [F,A,E]2 | [B,F]4 [B,,B,]2 | [D,A,]2 [D,A,]2 [^F,D]2 | %23
 [^F,D]3 [G,D] [G,D]2 | [C,C]2 [C,B,]2 [C,B,]2 | [F,A,]4 [F,A,]2 | [B,,B,]2 [B,,B,]2 [F,A,]2 | %27
 [B,,F,]2 [B,,F,]2 D,2 | E,3 D, G,2 | B,4 B,,2 | E,2 [E,B,]2 [E,B,]2 | [B,,B,]3 [C,A,] [D,B,]2 | %32
 [C,B,]2 [C,C]2 [F,E]2 |[M:2/4] [B,,F,]4 |] %34
V:3
 x6 | B,,6 | C,6 | F,,6[K:treble] | B,,6 | D,6[K:treble] | G,,6 | C,,6 | F,,6 | B,,6 | C,6 | %11
 F,,6[K:treble] | D,,6 | E,,6[K:treble] | E,,6 | F,,6[K:treble] |[M:2/4][K:bass] x4 |[M:1/4] x2 | %18
[M:3/4] x6 | x6 | x6 | x6 | x6 | x6 | x6 | x6 | x6 | x6 | x6 | x6 | x6 | x6 | x6 |[M:2/4] x4 |] %34
V:4
 x6 | x6 | x6 | x6 | z2 F2 d2 | x6 | z2 z B B2 | x6 | z2 F2 F2 | x6 | x6 | x6 | z2 ^F2 d2 | x6 | %14
 z2 G2 AG | x6 |[M:2/4] x4 |[M:1/4] x2 |[M:3/4] x6 | x6 | x6 | x6 | x6 | x6 | x6 | x6 | x6 | x6 | %28
 x6 | x6 | x6 | x6 | x6 |[M:2/4] x4 |] %34
V:5
 x6 | x6 | x6 | x6 | x6 | x6 | z2 G2 z2 | x6 | x6 | x6 | x6 | x6 | x6 | x6 | x6 | x6 |[M:2/4] x4 | %17
[M:1/4] x2 |[M:3/4] x6 | x6 | x6 | x6 | x6 | x6 | x6 | x6 | x6 | x6 | x6 | x6 | x6 | x6 | x6 | %33
[M:2/4] x4 |] %34

